src/assets/skills/javascript.svg

<svg height="100pt" viewBox="0 0 100 100" width="100pt" xmlns="http://www.w3.org/2000/svg"><path d="m0 0h100v100h-100z" fill="#f7df1e"/><g fill="#fff"><path d="m82.202 70.523c-.625-3.914-3.175-7.204-10.735-10.271-2.631-1.234-5.556-2.092-6.425-4.076-.324-1.179-.375-1.823-.163-2.52.536-2.308 3.271-3.003 5.416-2.359 1.394.429 2.681 1.501 3.488 3.217 3.697-2.416 3.697-2.416 6.274-4.022-.965-1.501-1.445-2.147-2.094-2.788-2.252-2.52-5.252-3.807-10.132-3.698l-2.52.32c-2.416.589-4.719 1.876-6.113 3.592-4.076 4.615-2.899 12.658 2.035 15.983 4.879 3.646 12.014 4.448 12.925 7.882.858 4.183-3.11 5.524-7.027 5.041-2.898-.643-4.504-2.094-6.274-4.775l-6.542 3.756c.751 1.716 1.609 2.464 2.896 3.966 6.22 6.276 21.771 5.955 24.562-3.59.105-.322.858-2.521.265-5.899z"/><path d="m50.501 44.617h-8.085c0 6.971-.032 13.898-.032 20.879 0 4.432.227 8.5-.496 9.752-1.187 2.479-4.243 2.161-5.633 1.726-1.424-.704-2.147-1.675-2.986-3.075-.226-.378-.396-.704-.456-.704l-6.563 4.046c1.098 2.266 2.698 4.217 4.761 5.457 3.075 1.835 7.208 2.428 11.535 1.457 2.816-.812 5.244-2.484 6.514-5.074 1.835-3.345 1.446-7.445 1.427-12.034.044-7.388 0-14.779 0-22.225z"/></g></svg>

<?xml version="1.0" encoding="UTF-8" standalone="no"?><!-- Generator: Gravit.io --><svg xmlns="http://www.w3.org/2000/svg" xmlns:xlink="http://www.w3.org/1999/xlink" style="isolation:isolate" viewBox="0 0 100 100" width="100pt" height="100pt"><path d=" M 0 0 L 100 0 L 100 100 L 0 100 L 0 0 Z " fill="rgb(247,223,30)"/><g><path d=" M 82.202 70.523 C 81.577 66.609 79.027 63.319 71.467 60.252 C 68.836 59.018 65.911 58.16 65.042 56.176 C 64.718 54.997 64.667 54.353 64.879 53.656 C 65.415 51.348 68.15 50.653 70.295 51.297 C 71.689 51.726 72.976 52.798 73.783 54.514 C 77.48 52.098 77.48 52.098 80.057 50.492 C 79.092 48.991 78.612 48.345 77.963 47.704 C 75.711 45.184 72.711 43.897 67.831 44.006 L 65.311 44.326 C 62.895 44.915 60.592 46.202 59.198 47.918 C 55.122 52.533 56.299 60.576 61.233 63.901 C 66.112 67.547 73.247 68.349 74.158 71.783 C 75.016 75.966 71.048 77.307 67.131 76.824 C 64.233 76.181 62.627 74.73 60.857 72.049 L 54.315 75.805 C 55.066 77.521 55.924 78.269 57.211 79.771 C 63.431 86.047 78.982 85.726 81.773 76.181 C 81.878 75.859 82.631 73.66 82.038 70.282 L 82.202 70.523 Z " fill="rgb(255,255,255)"/><path d=" M 50.501 44.617 L 42.416 44.617 C 42.416 51.588 42.384 58.515 42.384 65.496 C 42.384 69.928 42.611 73.996 41.888 75.248 C 40.701 77.727 37.645 77.409 36.255 76.974 C 34.831 76.27 34.108 75.299 33.269 73.899 C 33.043 73.521 32.873 73.195 32.813 73.195 L 26.25 77.241 C 27.348 79.507 28.948 81.458 31.011 82.698 C 34.086 84.533 38.219 85.126 42.546 84.155 C 45.362 83.343 47.79 81.671 49.06 79.081 C 50.895 75.736 50.506 71.636 50.487 67.047 C 50.531 59.659 50.487 52.268 50.487 44.822 L 50.501 44.617 Z " fill="rgb(255,255,255)"/></g></svg>
